docs/public/static/sponsors/kombai-square-light.svg

<svg width="192" height="192" viewBox="0 0 192 192" fill="none" xmlns="http://www.w3.org/2000/svg">
<path d="M96 4.0498C128.006 4.0498 153.95 29.9864 153.95 61.9775C153.95 93.9685 128.006 119.904 96 119.904C63.9942 119.904 38.05 93.9685 38.0498 61.9775C38.0498 29.9864 63.994 4.0498 96 4.0498Z" stroke="black" stroke-width="6.1"/>
<path d="M91.6409 101.305C71.4814 104.202 52.8367 102.021 48.6217 100.392C61.8384 116.246 76.885 120.311 84.815 121.937C114.298 127.425 135.852 110.352 143.375 100.392C136.631 98.7325 111.8 98.4085 91.6409 101.305Z" fill="black"/>
<path d="M62.9325 53.1515C63.988 50.4044 67.219 50.4145 70.0236 51.108C71.3559 51.4375 72.3327 50.3293 71.1939 49.5635C67.8258 47.2986 61.8572 47.2143 59.6049 51.4882C56.8763 56.6661 59.2767 60.3587 61.1025 62.8678L67.5474 70.0742L67.9395 72.066L72.6382 67.5659L65.3218 61.1991C63.8587 59.7088 61.3828 57.1851 62.9325 53.1515Z" fill="black"/>
<path d="M126.726 28.5371C127.941 28.1116 128.865 28.0561 129.039 28.3809C129.559 28.8435 130.139 30.0597 130.467 30.8701C130.478 30.8942 130.488 30.9208 130.5 30.9502C130.529 31.0232 130.555 31.0929 130.58 31.1572C130.575 31.1534 130.57 31.1501 130.566 31.1484C130.633 31.3613 130.714 31.6568 130.819 32.0498C131.732 35.4573 130.747 37.2447 126.347 40.1699C124.186 41.6066 122.199 43.9123 121.332 45.9912C119.969 49.2556 119.955 49.5104 120.609 58.6289C120.606 59.4295 120.617 60.2146 120.627 60.9863C120.689 65.4876 120.743 69.5331 118.041 73.5283L118.462 76.6104C118.535 77.0899 118.633 77.8016 118.743 78.6572L119.167 81.7568L119.131 81.8535C120.012 89.2805 120.863 95.3207 121.094 95.7656C121.214 95.996 121.775 96.2467 122.388 96.3438C123.716 96.5541 124.608 97.3816 125.253 99.0039C125.515 99.6614 125.737 100.288 125.747 100.396C125.755 100.503 124 100.747 121.846 100.938L117.928 101.285L116.853 100.355C116.261 99.8447 115.58 99.1102 115.339 98.7227C115.09 98.3216 114.712 96.9422 114.274 94.8945L114.258 94.9385L109.612 81.2041L109.197 78.1963C109.111 77.8279 108.999 77.2119 108.899 76.5371C108.744 75.4903 108.526 74.6415 108.415 74.6514C108.087 74.6804 107.648 75.9611 107.475 77.3955C107.25 79.263 108.419 95.1635 108.864 96.2725C109.154 96.9966 109.411 97.1877 110.668 97.6123C111.913 98.0322 112.223 98.2596 112.722 99.1172C113.045 99.6726 113.404 100.471 113.519 100.892L113.729 101.657L105.822 102.356L104.899 101.589C103.053 100.052 102.759 99.2252 101.336 91.5469C100.95 89.4603 100.427 86.2259 100.174 84.3594L99.7144 80.9648L97.8882 81.125C95.2244 81.3582 93.1674 81.1472 90.7729 80.3945C90.5084 80.3114 90.2531 80.2317 90.0073 80.1553C89.9345 80.7882 89.8146 81.3974 89.6694 81.9629C89.5537 82.89 88.6388 85.0796 87.8774 86.1777C87.5074 86.7113 86.411 87.8676 85.4409 88.7471C82.3739 91.5269 81.9062 92.8257 83.1753 95.043C84.0852 96.633 85.823 98.2189 87.3062 98.8135C88.7034 99.3737 89.6958 100.232 90.3101 101.41C90.5658 101.901 90.7793 102.343 90.7837 102.393C90.7825 102.443 89.0234 102.639 86.8706 102.83L82.9507 103.177L82.1343 102.466C80.3079 100.876 78.1902 97.208 76.7788 93.1904C76.7079 92.9885 76.6396 92.7975 76.5757 92.6162L76.5718 92.6045C75.8356 90.5176 75.5643 89.7483 75.7446 89.1055C75.8499 88.7305 76.109 88.3978 76.519 87.8721L76.52 87.8711C76.582 87.7916 76.6484 87.7073 76.7173 87.6182C77.3803 86.7596 78.1501 85.4923 78.4282 84.8018C78.4319 84.7927 78.4353 84.7834 78.439 84.7744C78.4435 84.7634 78.4481 84.7523 78.4526 84.7412H78.4458C79.2243 82.6648 80.4133 80.2552 81.647 78.6104C79.1587 78.843 78.2964 79.4406 77.0757 81.6318C74.3018 86.6093 71.4396 89.3 66.1655 91.8877C61.7841 94.0376 60.9756 95.7275 62.2876 99.9893C62.644 101.148 62.8396 101.408 63.7778 101.964C64.9876 102.681 65.968 104.047 66.0659 105.151L66.1313 105.885L59.2661 106.358L58.6265 105.318C57.4988 103.485 56.9836 101.349 56.3521 95.8848L55.7583 90.748L56.5288 89.9443C56.9528 89.5024 58.1096 88.5446 59.0991 87.8154C60.0887 87.0865 61.275 86.0685 61.7349 85.5537C63.2386 83.8706 63.9869 80.9858 64.4761 74.9844C64.7534 71.5832 66.1343 67.5332 66.1343 67.5332C66.1514 67.4876 67.5181 63.9127 75.2231 61.5254C76.2804 61.1978 77.7128 60.7545 79.7837 60.3037C82.5008 59.7122 84.864 59.2411 86.9546 58.8242C93.7968 57.4598 97.7197 56.6775 101.577 54.166C101.788 54.0286 101.995 53.8983 102.197 53.7715C104.382 52.3991 105.958 51.4087 105.365 45.5723C105.354 45.353 105.296 45.0219 105.223 44.6055C105.096 43.8848 104.925 42.9072 104.874 41.8057C104.929 41.8442 104.984 41.8821 105.04 41.9209C105.168 42.0113 105.298 42.1028 105.427 42.1943C106.283 42.7995 107.158 43.4184 108.035 43.8877C108.567 44.1726 109.192 44.4683 109.923 44.7686C111.624 45.467 112.809 45.5567 113.613 45.2754C114.451 44.9821 114.794 44.3161 114.844 43.75C114.859 43.5799 114.817 43.4271 114.763 43.3096C113.353 40.2185 112.288 37.2132 111.725 33.8389C111.084 37.1672 112.644 40.6668 114.006 43.6543C114.012 43.6666 114.014 43.6755 114.015 43.6797C113.988 43.9713 113.82 44.3226 113.338 44.4912C112.82 44.6727 111.869 44.6682 110.24 43.999C109.532 43.7083 108.932 43.4245 108.427 43.1543C107.599 42.7114 106.771 42.1267 105.911 41.5186C105.781 41.4266 105.65 41.3338 105.518 41.2412C104.529 40.5457 103.495 39.8472 102.426 39.3906L102.273 39.3252C102.276 39.2958 102.282 39.2658 102.291 39.2363C104.036 33.1425 112.251 26.8644 118.961 28.6484C119.383 28.7606 119.777 28.9811 120.427 29.3457L121.669 30.042L123.514 29.5283C124.529 29.2464 125.974 28.8003 126.726 28.5371ZM130.494 33.5518C130.079 32.7013 129.82 32.8362 129.462 34.0869C128.675 36.8419 127.2 38.1664 124.358 38.6709C121.946 39.0989 121.736 39.1938 121.875 39.7861C122.026 40.4295 122.914 40.5287 123.618 39.9805C123.891 39.7675 124.693 39.3453 125.399 39.043C127.202 38.2712 128.255 37.41 129.181 35.9492C129.621 35.256 130.109 34.6717 130.266 34.6504C130.724 34.5876 130.806 34.1926 130.494 33.5518ZM117.502 31.4883C117.238 30.3588 116.479 31.3714 116.596 32.6973C116.642 33.2112 116.777 33.4205 117.048 33.3965C117.294 33.3746 117.372 33.235 117.263 33.0127C117.13 32.7414 117.222 32.6843 117.676 32.7559C117.998 32.8064 118.503 32.6847 118.797 32.4854C119.328 32.1264 119.324 32.1223 118.48 32.0713C117.83 32.032 117.597 31.8934 117.502 31.4883ZM128.597 28.75C128.482 28.784 128.352 28.8138 128.214 28.8379C127.195 29.0157 126.732 29.658 127.183 30.2695C127.344 30.4874 127.976 30.8583 128.587 31.0938L129.701 31.5215L130.05 30.9814C129.645 30.476 128.94 29.3297 128.597 28.75Z" fill="black"/>
<path d="M4.20517 178V139.455H11.1878V157.165H11.6583L26.6963 139.455H35.2222L20.316 156.751L35.354 178H26.9598L15.4601 161.475L11.1878 166.519V178H4.20517ZM50.2602 178.565C47.4371 178.565 44.9903 177.944 42.92 176.701C40.8497 175.459 39.2436 173.721 38.1018 171.488C36.9726 169.254 36.4079 166.645 36.4079 163.658C36.4079 160.672 36.9726 158.056 38.1018 155.81C39.2436 153.564 40.8497 151.82 42.92 150.578C44.9903 149.336 47.4371 148.714 50.2602 148.714C53.0834 148.714 55.5301 149.336 57.6004 150.578C59.6707 151.82 61.2705 153.564 62.3998 155.81C63.5416 158.056 64.1125 160.672 64.1125 163.658C64.1125 166.645 63.5416 169.254 62.3998 171.488C61.2705 173.721 59.6707 175.459 57.6004 176.701C55.5301 177.944 53.0834 178.565 50.2602 178.565ZM50.2979 173.107C51.8286 173.107 53.1085 172.686 54.1373 171.846C55.1662 170.992 55.9316 169.85 56.4335 168.42C56.9479 166.99 57.2052 165.396 57.2052 163.64C57.2052 161.87 56.9479 160.271 56.4335 158.84C55.9316 157.397 55.1662 156.249 54.1373 155.396C53.1085 154.543 51.8286 154.116 50.2979 154.116C48.7294 154.116 47.4245 154.543 46.3831 155.396C45.3542 156.249 44.5825 157.397 44.0681 158.84C43.5662 160.271 43.3153 161.87 43.3153 163.64C43.3153 165.396 43.5662 166.99 44.0681 168.42C44.5825 169.85 45.3542 170.992 46.3831 171.846C47.4245 172.686 48.7294 173.107 50.2979 173.107ZM69.8952 178V149.091H76.4073V154.003H76.7461C77.3484 152.347 78.3459 151.055 79.7386 150.126C81.1314 149.185 82.7939 148.714 84.7262 148.714C86.6836 148.714 88.3336 149.191 89.6761 150.145C91.0313 151.086 91.9848 152.372 92.5369 154.003H92.8381C93.478 152.397 94.5571 151.117 96.0753 150.164C97.6061 149.198 99.4192 148.714 101.515 148.714C104.175 148.714 106.345 149.555 108.027 151.237C109.708 152.918 110.549 155.371 110.549 158.596V178H103.717V159.65C103.717 157.855 103.24 156.544 102.286 155.716C101.333 154.875 100.166 154.455 98.7855 154.455C97.1418 154.455 95.8557 154.969 94.9272 155.998C94.0112 157.015 93.5533 158.338 93.5533 159.969V178H86.8718V159.367C86.8718 157.874 86.4201 156.682 85.5167 155.791C84.6258 154.9 83.4589 154.455 82.016 154.455C81.0373 154.455 80.1464 154.706 79.3434 155.208C78.5404 155.697 77.9005 156.393 77.4237 157.297C76.9469 158.188 76.7085 159.229 76.7085 160.421V178H69.8952ZM117.762 178V139.455H124.575V153.871H124.857C125.209 153.169 125.704 152.422 126.344 151.632C126.984 150.829 127.85 150.145 128.941 149.58C130.033 149.003 131.426 148.714 133.12 148.714C135.353 148.714 137.367 149.285 139.161 150.427C140.968 151.556 142.399 153.232 143.453 155.452C144.519 157.661 145.052 160.371 145.052 163.583C145.052 166.758 144.532 169.455 143.49 171.676C142.449 173.897 141.031 175.591 139.237 176.758C137.442 177.925 135.41 178.508 133.139 178.508C131.482 178.508 130.108 178.232 129.017 177.68C127.925 177.128 127.047 176.463 126.382 175.685C125.729 174.895 125.221 174.148 124.857 173.445H124.462V178H117.762ZM124.443 163.545C124.443 165.415 124.707 167.052 125.234 168.458C125.773 169.863 126.545 170.961 127.549 171.751C128.565 172.529 129.795 172.918 131.238 172.918C132.743 172.918 134.004 172.517 135.021 171.714C136.037 170.898 136.802 169.788 137.317 168.382C137.844 166.965 138.107 165.352 138.107 163.545C138.107 161.751 137.85 160.158 137.336 158.765C136.821 157.372 136.056 156.281 135.04 155.49C134.023 154.7 132.756 154.304 131.238 154.304C129.782 154.304 128.546 154.687 127.53 155.452C126.514 156.218 125.742 157.291 125.215 158.671C124.7 160.051 124.443 161.676 124.443 163.545ZM159.163 178.583C157.331 178.583 155.681 178.257 154.213 177.605C152.758 176.94 151.604 175.961 150.75 174.669C149.91 173.376 149.489 171.783 149.489 169.888C149.489 168.257 149.79 166.908 150.393 165.842C150.995 164.775 151.817 163.922 152.858 163.282C153.9 162.642 155.073 162.159 156.378 161.833C157.695 161.494 159.057 161.249 160.462 161.099C162.156 160.923 163.53 160.766 164.584 160.628C165.638 160.478 166.403 160.252 166.88 159.951C167.369 159.637 167.614 159.154 167.614 158.501V158.388C167.614 156.971 167.194 155.873 166.353 155.095C165.512 154.317 164.301 153.928 162.721 153.928C161.052 153.928 159.728 154.292 158.749 155.02C157.783 155.747 157.131 156.607 156.792 157.598L150.43 156.695C150.932 154.938 151.76 153.47 152.915 152.29C154.069 151.098 155.481 150.208 157.15 149.618C158.818 149.016 160.663 148.714 162.683 148.714C164.076 148.714 165.462 148.878 166.842 149.204C168.223 149.53 169.484 150.07 170.625 150.822C171.767 151.563 172.683 152.573 173.373 153.853C174.076 155.132 174.427 156.732 174.427 158.652V178H167.877V174.029H167.652C167.238 174.832 166.654 175.585 165.901 176.287C165.161 176.977 164.226 177.536 163.097 177.962C161.98 178.376 160.669 178.583 159.163 178.583ZM160.933 173.577C162.3 173.577 163.486 173.307 164.49 172.768C165.493 172.216 166.265 171.488 166.805 170.585C167.357 169.681 167.633 168.696 167.633 167.63V164.223C167.42 164.399 167.056 164.562 166.541 164.712C166.039 164.863 165.475 164.995 164.847 165.108C164.22 165.221 163.599 165.321 162.984 165.409C162.369 165.497 161.836 165.572 161.384 165.635C160.368 165.773 159.458 165.998 158.655 166.312C157.852 166.626 157.219 167.065 156.754 167.63C156.29 168.182 156.058 168.897 156.058 169.775C156.058 171.03 156.516 171.977 157.432 172.617C158.348 173.257 159.515 173.577 160.933 173.577ZM181.278 178V149.091H188.091V178H181.278ZM184.703 144.988C183.624 144.988 182.696 144.63 181.918 143.915C181.14 143.187 180.751 142.315 180.751 141.299C180.751 140.27 181.14 139.398 181.918 138.683C182.696 137.955 183.624 137.591 184.703 137.591C185.795 137.591 186.724 137.955 187.489 138.683C188.267 139.398 188.656 140.27 188.656 141.299C188.656 142.315 188.267 143.187 187.489 143.915C186.724 144.63 185.795 144.988 184.703 144.988Z" fill="black"/>
</svg>

<svg xmlns="http://www.w3.org/2000/svg" width="192" height="192" fill="none"><path stroke="#000" stroke-width="6.1" d="M96 4.05c32.006 0 57.95 25.936 57.95 57.928 0 31.99-25.944 57.926-57.95 57.926S38.05 93.969 38.05 61.978C38.05 29.985 63.994 4.05 96 4.05Z"/><path fill="#000" d="M91.64 101.305c-20.159 2.897-38.803.716-43.018-.913 13.216 15.854 28.263 19.919 36.193 21.545 29.483 5.488 51.037-11.585 58.56-21.545-6.744-1.66-31.575-1.983-51.734.913ZM62.932 53.151c1.056-2.747 4.287-2.737 7.092-2.043 1.332.33 2.309-.779 1.17-1.544-3.368-2.265-9.337-2.35-11.59 1.924-2.728 5.178-.327 8.87 1.498 11.38l6.445 7.206.392 1.992 4.7-4.5-7.317-6.367c-1.463-1.49-3.94-4.014-2.39-8.047Z"/><path fill="#000" d="M126.726 28.537c1.215-.425 2.139-.48 2.313-.156.52.462 1.1 1.679 1.428 2.49.011.023.021.05.033.08l.08.206a.073.073 0 0 0-.014-.009c.067.213.148.509.253.902.913 3.407-.072 5.195-4.472 8.12-2.161 1.437-4.148 3.742-5.015 5.821-1.363 3.265-1.377 3.52-.723 12.638-.003.8.008 1.586.018 2.357.062 4.502.116 8.547-2.586 12.542l.421 3.082c.073.48.171 1.192.281 2.047l.424 3.1-.036.096c.881 7.428 1.732 13.468 1.963 13.913.12.23.681.48 1.294.578 1.328.21 2.22 1.038 2.865 2.66.262.657.484 1.284.494 1.392.008.107-1.747.351-3.901.542l-3.918.347-1.075-.93c-.592-.51-1.273-1.245-1.514-1.632-.249-.401-.627-1.78-1.065-3.829l-.016.044-4.646-13.734-.415-3.008a23.034 23.034 0 0 1-.298-1.659c-.155-1.047-.373-1.896-.484-1.886-.328.03-.767 1.31-.94 2.745-.225 1.867.944 17.767 1.389 18.876.29.725.547.916 1.804 1.34 1.245.42 1.555.648 2.054 1.505.323.556.682 1.354.797 1.775l.21.765-7.907.699-.923-.767c-1.846-1.537-2.14-2.364-3.563-10.042a183.65 183.65 0 0 1-1.162-7.188l-.46-3.394-1.826.16c-2.664.233-4.72.022-7.115-.73l-.766-.24a13.5 13.5 0 0 1-.338 1.808c-.115.927-1.03 3.117-1.792 4.215-.37.533-1.466 1.69-2.436 2.57-3.067 2.779-3.535 4.078-2.266 6.295.91 1.59 2.648 3.176 4.131 3.77 1.397.56 2.39 1.419 3.004 2.597.256.491.47.933.474.983-.002.05-1.76.246-3.913.437l-3.92.347-.817-.711c-1.826-1.59-3.944-5.258-5.355-9.276-.071-.201-.14-.392-.203-.574l-.004-.011c-.736-2.087-1.008-2.857-.827-3.5.105-.374.364-.707.774-1.233h.001l.197-.254c.663-.858 1.433-2.126 1.711-2.816l.011-.028.014-.033h-.007c.778-2.076 1.967-4.486 3.201-6.13-2.488.232-3.35.83-4.571 3.02-2.774 4.978-5.636 7.669-10.91 10.257-4.382 2.15-5.19 3.84-3.878 8.101.356 1.159.552 1.419 1.49 1.975 1.21.717 2.19 2.083 2.288 3.187l.065.734-6.865.473-.64-1.04c-1.127-1.833-1.642-3.969-2.274-9.433l-.594-5.137.77-.804c.425-.442 1.582-1.4 2.571-2.129.99-.728 2.176-1.746 2.636-2.261 1.504-1.683 2.252-4.568 2.741-10.57.277-3.4 1.658-7.45 1.658-7.45.017-.046 1.384-3.621 9.09-6.009 1.056-.327 2.489-.77 4.56-1.221 2.717-.592 5.08-1.063 7.17-1.48 6.843-1.364 10.766-2.146 14.623-4.658.211-.137.418-.268.62-.394 2.185-1.373 3.761-2.363 3.168-8.2-.011-.219-.069-.55-.142-.967-.127-.72-.298-1.698-.349-2.8.055.04.11.077.166.116l.387.273c.856.605 1.731 1.224 2.608 1.694.532.285 1.157.58 1.888.88 1.701.699 2.886.789 3.69.507.838-.293 1.181-.959 1.231-1.525a.875.875 0 0 0-.081-.44c-1.41-3.092-2.475-6.097-3.038-9.471-.641 3.328.919 6.828 2.281 9.815.006.013.008.021.009.026-.027.291-.195.643-.677.811-.518.182-1.469.177-3.098-.492a19.768 19.768 0 0 1-1.813-.845c-.828-.443-1.656-1.027-2.516-1.635l-.393-.278c-.989-.695-2.023-1.394-3.092-1.85l-.153-.066a.469.469 0 0 1 .018-.089c1.745-6.093 9.96-12.372 16.67-10.588.422.113.816.333 1.466.698l1.242.696 1.845-.514a62.912 62.912 0 0 0 3.212-.99Zm3.768 5.015c-.415-.85-.674-.716-1.032.535-.787 2.755-2.262 4.08-5.104 4.584-2.412.428-2.622.523-2.483 1.115.151.643 1.039.743 1.743.194.273-.212 1.075-.635 1.781-.937 1.803-.772 2.856-1.633 3.782-3.094.44-.693.928-1.277 1.085-1.299.458-.062.54-.457.228-1.098Zm-12.992-2.064c-.264-1.13-1.023-.117-.906 1.21.046.513.181.722.452.699.246-.022.324-.162.215-.384-.133-.272-.041-.329.413-.257.322.05.827-.071 1.121-.27.531-.36.527-.364-.317-.415-.65-.039-.883-.178-.978-.583Zm11.095-2.738a3.477 3.477 0 0 1-.383.088c-1.019.178-1.482.82-1.031 1.431.161.218.793.59 1.404.825l1.114.427.349-.54c-.405-.505-1.11-1.651-1.453-2.231ZM4.205 178v-38.545h6.983v17.71h.47l15.038-17.71h8.526l-14.906 17.296L35.354 178H26.96l-11.5-16.525-4.272 5.044V178H4.205Zm46.055.565c-2.823 0-5.27-.621-7.34-1.864-2.07-1.242-3.676-2.98-4.818-5.213-1.13-2.234-1.694-4.843-1.694-7.83 0-2.986.565-5.602 1.694-7.848 1.142-2.246 2.748-3.99 4.818-5.232 2.07-1.242 4.517-1.864 7.34-1.864 2.823 0 5.27.622 7.34 1.864 2.07 1.242 3.67 2.986 4.8 5.232 1.142 2.246 1.712 4.862 1.712 7.848 0 2.987-.57 5.596-1.712 7.83-1.13 2.233-2.73 3.971-4.8 5.213-2.07 1.243-4.517 1.864-7.34 1.864Zm.038-5.458c1.53 0 2.81-.421 3.84-1.261 1.028-.854 1.794-1.996 2.296-3.426.514-1.43.771-3.024.771-4.78 0-1.77-.257-3.369-.771-4.8-.502-1.443-1.268-2.591-2.297-3.444-1.029-.853-2.308-1.28-3.84-1.28-1.568 0-2.872.427-3.914 1.28-1.029.853-1.8 2.001-2.315 3.444-.502 1.431-.753 3.03-.753 4.8 0 1.756.251 3.35.753 4.78.515 1.43 1.286 2.572 2.315 3.426 1.041.84 2.346 1.261 3.915 1.261ZM69.895 178v-28.909h6.512v4.912h.34c.601-1.656 1.599-2.948 2.992-3.877 1.392-.941 3.055-1.412 4.987-1.412 1.958 0 3.608.477 4.95 1.431 1.355.941 2.309 2.227 2.86 3.858h.302c.64-1.606 1.72-2.886 3.237-3.839 1.531-.966 3.344-1.45 5.44-1.45 2.66 0 4.83.841 6.512 2.523 1.681 1.681 2.522 4.134 2.522 7.359V178h-6.832v-18.35c0-1.795-.477-3.106-1.431-3.934-.953-.841-2.12-1.261-3.5-1.261-1.644 0-2.93.514-3.859 1.543-.916 1.017-1.374 2.34-1.374 3.971V178h-6.681v-18.633c0-1.493-.452-2.685-1.355-3.576-.891-.891-2.058-1.336-3.501-1.336a4.94 4.94 0 0 0-2.673.753c-.803.489-1.443 1.185-1.92 2.089-.476.891-.715 1.932-.715 3.124V178h-6.813Zm47.867 0v-38.545h6.813v14.416h.282c.352-.702.847-1.449 1.487-2.239.64-.803 1.506-1.487 2.597-2.052 1.092-.577 2.485-.866 4.179-.866 2.233 0 4.247.571 6.041 1.713 1.807 1.129 3.238 2.805 4.292 5.025 1.066 2.209 1.599 4.919 1.599 8.131 0 3.175-.52 5.872-1.562 8.093-1.041 2.221-2.459 3.915-4.253 5.082-1.795 1.167-3.827 1.75-6.098 1.75-1.657 0-3.031-.276-4.122-.828-1.092-.552-1.97-1.217-2.635-1.995-.653-.79-1.161-1.537-1.525-2.24h-.395V178h-6.7Zm6.681-14.455c0 1.87.264 3.507.791 4.913.539 1.405 1.311 2.503 2.315 3.293 1.016.778 2.246 1.167 3.689 1.167 1.505 0 2.766-.401 3.783-1.204 1.016-.816 1.781-1.926 2.296-3.332.527-1.417.79-3.03.79-4.837 0-1.794-.257-3.387-.771-4.78-.515-1.393-1.28-2.484-2.296-3.275-1.017-.79-2.284-1.186-3.802-1.186-1.456 0-2.692.383-3.708 1.148-1.016.766-1.788 1.839-2.315 3.219-.515 1.38-.772 3.005-.772 4.874Zm34.72 15.038c-1.832 0-3.482-.326-4.95-.978-1.455-.665-2.609-1.644-3.463-2.936-.84-1.293-1.261-2.886-1.261-4.781 0-1.631.301-2.98.904-4.046a6.99 6.99 0 0 1 2.465-2.56c1.042-.64 2.215-1.123 3.52-1.449a28.506 28.506 0 0 1 4.084-.734c1.694-.176 3.068-.333 4.122-.471 1.054-.15 1.819-.376 2.296-.677.489-.314.734-.797.734-1.45v-.113c0-1.417-.42-2.515-1.261-3.293s-2.052-1.167-3.632-1.167c-1.669 0-2.993.364-3.972 1.092-.966.727-1.618 1.587-1.957 2.578l-6.362-.903c.502-1.757 1.33-3.225 2.485-4.405 1.154-1.192 2.566-2.082 4.235-2.672 1.668-.602 3.513-.904 5.533-.904 1.393 0 2.779.164 4.159.49a11.7 11.7 0 0 1 3.783 1.618c1.142.741 2.058 1.751 2.748 3.031.703 1.279 1.054 2.879 1.054 4.799V178h-6.55v-3.971h-.225c-.414.803-.998 1.556-1.751 2.258-.74.69-1.675 1.249-2.804 1.675-1.117.414-2.428.621-3.934.621Zm1.77-5.006c1.367 0 2.553-.27 3.557-.809 1.003-.552 1.775-1.28 2.315-2.183a5.565 5.565 0 0 0 .828-2.955v-3.407c-.213.176-.577.339-1.092.489-.502.151-1.066.283-1.694.396-.627.113-1.248.213-1.863.301s-1.148.163-1.6.226c-1.016.138-1.926.363-2.729.677-.803.314-1.436.753-1.901 1.318-.464.552-.696 1.267-.696 2.145 0 1.255.458 2.202 1.374 2.842.916.64 2.083.96 3.501.96ZM181.278 178v-28.909h6.813V178h-6.813Zm3.425-33.012c-1.079 0-2.007-.358-2.785-1.073-.778-.728-1.167-1.6-1.167-2.616 0-1.029.389-1.901 1.167-2.616.778-.728 1.706-1.092 2.785-1.092 1.092 0 2.021.364 2.786 1.092.778.715 1.167 1.587 1.167 2.616 0 1.016-.389 1.888-1.167 2.616-.765.715-1.694 1.073-2.786 1.073Z"/></svg>
